X:1
T:Send Us the Light
T:Send Us the Light
T:Arranged from John William Dadmun (1819-1890)
T:Charles Spurgeon Brown, 1899
T:Public Domain Courtesy of the Cyber Hymnal™
T:Public Domain Courtesy of the Cyber Hymnal™
C:Arranged from John William Dadmun (1819-1890)
Z:Public Domain
Z:Courtesy of the Cyber Hymnal™
%%score ( 1 2 ) ( 3 4 )
L:1/8
Q:1/4=100
M:4/4
K:G
V:1 treble 
V:2 treble 
V:3 bass 
V:4 bass 
V:1
 [DB]2 [DB]>[DA] [DG]2 [DG]>[DF] | E2 [EG]>[EA] [GB]4 | [FA]2 [FA]>[FA] [FA]4 | [GB]3 [FA] G4 | %4
w: 1.~O- ver the o- cean there|com- eth a cry,|“Send us the light,|send the light;|
w: 2.~“Here in the dark- ness and|sha- dow we grope,|Send us the light,|send the light;|
w: 3.~“You who have com- forts e-|nough and to spare,|Send us the light,|send the light;|
w: 4.~Still comes the cry with its|bur- den of tears,|“Send us the light,|send the light”;|
 [DB]2 [DB]>[DA] [DG]2 [DG]>[DF] | E2 [EG]>[EA] [GB]4 | [FA]2 [FA]>[FA] [FA]4 | [GB]3 [FA] G4 | %8
w: Need- y and help- less we|per- ish and die,|Send us the light,|send the light;|
w: Seek- ing for light and the|com- fort of hope,|Send us the light,|send the light;|
w: You who have known the most|boun- ti- ful care,|Send us the light,|send the light;|
w: Mel- ting our hearts and un-|lock- ing our ears,|“Send us the light,|send the light”;|
 [Ec]2 [Ec]>[Ec] [Ec]2 [Ec]>[Ec] | [DB]2 [DB]>[DB] [DA]4 | [Ec]2 [Ec]>[Ec] [Ec]2 [Ec]>[Ec] | %11
w: Come with your mes- sage of|love o’er the wave,|Tell us of Je- sus, the|
w: Mill- ions there are who have|ne- ver been told|Aught of the won- der- ful|
w: Yours is the du- ty, to|you we ap- peal,|Give of your trea- sure, your|
w: Mas- ter, for- give us the|long sor- did past,|Out of our self- ish- ness|
 [DB]2 [DB]>[DB] [DA]4 | [DB]2 [DB]>[DA] [DG]2 [DG]>[DF] | E2 [EG]>[EA] [GB]4 | %14
w: might- y to save,|Tell how He tri- umphed o’er|sin and the grave,|
w: sto- ry of old,|Aught of the beau- ti- ful|ci- ty of gold,|
w: know- ledge re- veal,|Tell us of Him who can|com- fort and heal,|
w: lift- ed at last,|May we be ev- er, where|life’s lot is cast,|
 [FA]2 [FA]>[FA] [FA]4 | [GB]3 [FA] G4 |] x8 |] %17
w: Send us the light,|send the light.”||
w: Send us the light,|send the light.”||
w: Send us the light,|send the light.”||
w: Bear- ers of light,|bear- ing light.||
V:2
 x8 | E2 x6 | x8 | x4 G4 | x8 | E2 x6 | x8 | x4 G4 | x8 | x8 | x8 | x8 | x8 | E2 x6 | x8 | x4 G4 |] %16
 x8 |] %17
V:3
 G,2 G,>[G,C] [G,B,]2 [G,B,]>[G,B,] | [G,C]2 [G,C]>[G,C] [G,D]4 | [D,D]2 [D,D]>[D,D] [D,D]4 | %3
 [D,D]3 [D,C] [G,B,]4 | G,2 G,>[G,C] [G,B,]2 [G,B,]>[G,B,] | [G,C]2 [G,C]>[G,C] [G,D]4 | %6
 [D,D]2 [D,D]>[D,D] [D,D]4 | [D,D]3 [D,C] [G,B,]4 | [C,G,]2 [C,G,]>[C,G,] [C,G,]2 [C,G,]>[C,G,] | %9
 [G,,G,]2 [G,,G,]>[B,,G,] [D,F,]4 | [C,G,]2 [C,G,]>[C,G,] [C,G,]2 [C,G,]>[C,G,] | %11
 [G,,G,]2 [G,,G,]>[B,,G,] x4 | [D,F,]4 x4 | G,2 G,>[G,C] [G,B,]2 [G,B,]>[G,B,] | %14
 [G,C]2 [G,C]>[G,C] [G,D]4 | [D,D]2 [D,D]>[D,D] [D,D]4 |] [D,D]3 [D,C] [G,B,]4 |] %17
V:4
 G,2 G,3/2 x9/2 | x8 | x8 | x8 | G,2 G,3/2 x9/2 | x8 | x8 | x8 | x8 | x8 | x8 | x8 | x8 | %13
 G,2 G,3/2 x9/2 | x8 | x8 |] x8 |] %17

